my-blog/src/components/images/mario.svg

<svg height="100" width="100" xmlns="http://www.w3.org/2000/svg" xmlns:xlink="http://www.w3.org/1999/xlink"><clipPath id="a"><path d="m0 0h100v100h-100z"/></clipPath><g clip-path="url(#a)"><path d="m6.222 75h6.278v6.278h-6.278zm0-6.278h6.278v6.278h-6.278z" fill="#f8d098"/><path d="m6.222 62.444h6.278v6.278h-6.278z" fill="#f8d098"/><g fill="#4d3605"><path d="m6.222 56.166h6.278v6.278h-6.278zm6.278 37.556h6.278v6.278h-6.278zm6.278 0h6.278v6.278h-6.278z"/><path d="m24.944 93.722h6.278v6.278h-6.278zm6.278 0h6.278v6.278h-6.278zm31.278 0h6.278v6.278h-6.278zm6.278 0h6.278v6.278h-6.278z"/><path d="m74.944 93.722h6.278v6.278h-6.278z"/><path d="m81.222 93.722h6.278v6.278h-6.278zm-62.444-6.278h6.278v6.278h-6.278z"/><path d="m24.944 87.444h6.278v6.278h-6.278zm6.278 0h6.278v6.278h-6.278zm31.278 0h6.278v6.278h-6.278zm6.278 0h6.278v6.278h-6.278z"/><path d="m74.944 87.444h6.278v6.278h-6.278z"/></g><path d="m24.944 81.278h6.278v6.278h-6.278zm6.278 0h6.278v6.278h-6.278zm6.278 0h6.278v6.278h-6.278zm18.722 0h6.278v6.278h-6.278zm6.278 0h6.278v6.278h-6.278zm6.278 0h6.278v6.278h-6.278z" fill="#be1e2d"/><path d="m12.5 75h6.278v6.278h-6.278zm6.278 0h6.278v6.278h-6.278z" fill="#fcba63"/><path d="m24.944 75h6.278v6.278h-6.278zm6.278 0h6.278v6.278h-6.278zm6.278 0h6.278v6.278h-6.278zm6.278 0h6.278v6.278h-6.278z" fill="#be1e2d"/><path d="m49.944 75h6.278v6.278h-6.278zm6.278 0h6.278v6.278h-6.278zm6.278 0h6.278v6.278h-6.278zm6.278 0h6.278v6.278h-6.278z" fill="#be1e2d"/><path d="m74.944 75h6.278v6.278h-6.278z" fill="#fcba63"/><path d="m81.222 75h6.278v6.278h-6.278zm6.278 0h6.278v6.278h-6.278zm-75-6.278h6.278v6.278h-6.278zm6.278 0h6.278v6.278h-6.278z" fill="#fcba63"/><path d="m24.944 68.722h6.278v6.278h-6.278z" fill="#fcba63"/><path d="m31.222 68.722h6.278v6.278h-6.278zm6.278 0h6.278v6.278h-6.278zm6.278 0h6.278v6.278h-6.278z" fill="#be1e2d"/><path d="m49.944 68.722h6.278v6.278h-6.278zm6.278 0h6.278v6.278h-6.278zm6.278 0h6.278v6.278h-6.278z" fill="#be1e2d"/><path d="m68.778 68.722h6.278v6.278h-6.278z" fill="#fcba63"/><path d="m74.944 68.722h6.278v6.278h-6.278z" fill="#fcba63"/><path d="m81.222 68.722h6.278v6.278h-6.278zm6.278 0h6.278v6.278h-6.278zm-75-6.278h6.278v6.278h-6.278zm6.278 0h6.278v6.278h-6.278z" fill="#fcba63"/><path d="m24.944 62.444h6.278v6.278h-6.278z" fill="#4d3605"/><path d="m31.222 62.444h6.278v6.278h-6.278z" fill="#be1e2d"/><path d="m37.5 62.444h6.278v6.278h-6.278z" fill="#fcba63"/><path d="m43.778 62.444h6.278v6.278h-6.278z" fill="#be1e2d"/><path d="m49.944 62.444h6.278v6.278h-6.278z" fill="#be1e2d"/><path d="m56.222 62.444h6.278v6.278h-6.278z" fill="#fcba63"/><path d="m62.5 62.444h6.278v6.278h-6.278z" fill="#be1e2d"/><path d="m68.778 62.444h6.278v6.278h-6.278z" fill="#4d3605"/><path d="m74.944 62.444h6.278v6.278h-6.278z" fill="#fcba63"/><path d="m81.222 62.444h6.278v6.278h-6.278zm6.278 0h6.278v6.278h-6.278z" fill="#fcba63"/><path d="m12.5 56.278h6.278v6.278h-6.278zm6.278 0h6.278v6.278h-6.278z" fill="#4d3605"/><path d="m24.944 56.278h6.278v6.278h-6.278zm6.278 0h6.278v6.278h-6.278z" fill="#4d3605"/><path d="m37.5 56.278h6.278v6.278h-6.278zm6.278 0h6.278v6.278h-6.278z" fill="#be1e2d"/><path d="m49.944 56.278h6.278v6.278h-6.278zm6.278 0h6.278v6.278h-6.278z" fill="#be1e2d"/><path d="m62.5 56.278h6.278v6.278h-6.278zm6.278 0h6.278v6.278h-6.278z" fill="#4d3605"/><path d="m74.944 56.278h6.278v6.278h-6.278z" fill="#4d3605"/><path d="m81.222 56.278h6.278v6.278h-6.278zm6.278 0h6.278v6.278h-6.278zm-75-6.278h6.278v6.278h-6.278zm6.278 0h6.278v6.278h-6.278z" fill="#4d3605"/><path d="m24.944 50h6.278v6.278h-6.278zm6.278 0h6.278v6.278h-6.278z" fill="#4d3605"/><path d="m37.5 50h6.278v6.278h-6.278z" fill="#be1e2d"/><path d="m43.778 50h6.278v6.278h-6.278z" fill="#4d3605"/><path d="m49.944 50h6.278v6.278h-6.278z" fill="#4d3605"/><path d="m56.222 50h6.278v6.278h-6.278z" fill="#be1e2d"/><path d="m62.5 50h6.278v6.278h-6.278zm6.278 0h6.278v6.278h-6.278z" fill="#4d3605"/><path d="m74.944 50h6.278v6.278h-6.278z" fill="#4d3605"/><path d="m81.222 50h6.278v6.278h-6.278zm-62.444-6.278h6.278v6.278h-6.278z" fill="#4d3605"/><path d="m24.944 43.722h6.278v6.278h-6.278zm6.278 0h6.278v6.278h-6.278z" fill="#4d3605"/><path d="m37.5 43.722h6.278v6.278h-6.278z" fill="#be1e2d"/><path d="m43.778 43.722h6.278v6.278h-6.278z" fill="#4d3605"/><path d="m49.944 43.722h6.278v6.278h-6.278zm6.278 0h6.278v6.278h-6.278z" fill="#4d3605"/><path d="m31.222 37.444h6.278v6.278h-6.278zm6.278 0h6.278v6.278h-6.278zm6.278 0h6.278v6.278h-6.278z" fill="#fcba63"/><path d="m49.944 37.444h6.278v6.278h-6.278zm6.278 0h6.278v6.278h-6.278zm6.278 0h6.278v6.278h-6.278zm6.278 0h6.278v6.278h-6.278z" fill="#fcba63"/><path d="m18.778 31.278h6.278v6.278h-6.278z" fill="#4d3605"/><path d="m24.944 31.278h6.278v6.278h-6.278z" fill="#4d3605"/><path d="m31.222 31.278h6.278v6.278h-6.278zm6.278 0h6.278v6.278h-6.278zm6.278 0h6.278v6.278h-6.278z" fill="#fcba63"/><path d="m49.944 31.278h6.278v6.278h-6.278z" fill="#fcba63"/><path d="m56.222 31.278h6.278v6.278h-6.278zm6.278 0h6.278v6.278h-6.278zm6.278 0h6.278v6.278h-6.278z" fill="#4d3605"/><path d="m74.944 31.278h6.278v6.278h-6.278zm-56.166-6.278h6.278v6.278h-6.278z" fill="#4d3605"/><path d="m24.944 25h6.278v6.278h-6.278z" fill="#fcba63"/><path d="m31.222 25h6.278v6.278h-6.278zm6.278 0h6.278v6.278h-6.278z" fill="#4d3605"/><path d="m43.778 25h6.278v6.278h-6.278z" fill="#fcba63"/><path d="m49.944 25h6.278v6.278h-6.278zm6.278 0h6.278v6.278h-6.278z" fill="#fcba63"/><path d="m62.5 25h6.278v6.278h-6.278z" fill="#4d3605"/><path d="m68.778 25h6.278v6.278h-6.278z" fill="#fcba63"/><path d="m74.944 25h6.278v6.278h-6.278z" fill="#fcba63"/><path d="m81.222 25h6.278v6.278h-6.278z" fill="#fcba63"/><path d="m18.778 18.722h6.278v6.278h-6.278z" fill="#4d3605"/><path d="m24.944 18.722h6.278v6.278h-6.278z" fill="#fcba63"/><path d="m31.222 18.722h6.278v6.278h-6.278z" fill="#4d3605"/><path d="m37.5 18.722h6.278v6.278h-6.278zm6.278 0h6.278v6.278h-6.278z" fill="#fcba63"/><path d="m49.944 18.722h6.278v6.278h-6.278z" fill="#fcba63"/><path d="m56.222 18.722h6.278v6.278h-6.278z" fill="#4d3605"/><path d="m62.5 18.722h6.278v6.278h-6.278zm6.278 0h6.278v6.278h-6.278z" fill="#fcba63"/><path d="m74.944 18.722h6.278v6.278h-6.278z" fill="#fcba63"/><path d="m24.944 12.444h6.278v6.278h-6.278zm6.278 0h6.278v6.278h-6.278zm6.278 0h6.278v6.278h-6.278z" fill="#4d3605"/><path d="m43.778 12.444h6.278v6.278h-6.278z" fill="#fcba63"/><path d="m49.944 12.444h6.278v6.278h-6.278z" fill="#fcba63"/><path d="m56.222 12.444h6.278v6.278h-6.278z" fill="#4d3605"/><path d="m62.5 12.444h6.278v6.278h-6.278z" fill="#fcba63"/><path d="m24.944 6.278h6.278v6.278h-6.278zm6.278 0h6.278v6.278h-6.278zm6.278 0h6.278v6.278h-6.278zm6.278 0h6.278v6.278h-6.278z" fill="#be1e2d"/><path d="m49.944 6.278h6.278v6.278h-6.278zm6.278 0h6.278v6.278h-6.278zm6.278 0h6.278v6.278h-6.278zm6.278 0h6.278v6.278h-6.278z" fill="#be1e2d"/><path d="m74.944 6.278h6.278v6.278h-6.278zm-43.722-6.278h6.278v6.278h-6.278zm6.278 0h6.278v6.278h-6.278zm6.278 0h6.278v6.278h-6.278z" fill="#be1e2d"/><path d="m49.944 0h6.278v6.278h-6.278zm6.278 0h6.278v6.278h-6.278z" fill="#be1e2d"/></g></svg>

<svg xmlns="http://www.w3.org/2000/svg" width="100" height="100" style="isolation:isolate"><defs><clipPath id="a"><path d="M0 0h100v100H0z"/></clipPath></defs><g clip-path="url(#a)"><path fill="#F8D098" d="M6.222 75H12.5v6.278H6.222zM6.222 68.722H12.5V75H6.222z"/><path fill="#F8D098" d="M6.222 62.444H12.5v6.278H6.222z"/><path fill="#4D3605" d="M6.222 56.166H12.5v6.278H6.222zM12.5 93.722h6.278V100H12.5zM18.778 93.722h6.278V100h-6.278z"/><path fill="#4D3605" d="M24.944 93.722h6.278V100h-6.278zM31.222 93.722H37.5V100h-6.278zM62.5 93.722h6.278V100H62.5zM68.778 93.722h6.278V100h-6.278z"/><path fill="#4D3605" d="M74.944 93.722h6.278V100h-6.278z"/><path fill="#4D3605" d="M81.222 93.722H87.5V100h-6.278zM18.778 87.444h6.278v6.278h-6.278z"/><path fill="#4D3605" d="M24.944 87.444h6.278v6.278h-6.278zM31.222 87.444H37.5v6.278h-6.278zM62.5 87.444h6.278v6.278H62.5zM68.778 87.444h6.278v6.278h-6.278z"/><path fill="#4D3605" d="M74.944 87.444h6.278v6.278h-6.278z"/><path fill="#BE1E2D" d="M24.944 81.278h6.278v6.278h-6.278zM31.222 81.278H37.5v6.278h-6.278zM37.5 81.278h6.278v6.278H37.5zM56.222 81.278H62.5v6.278h-6.278zM62.5 81.278h6.278v6.278H62.5zM68.778 81.278h6.278v6.278h-6.278z"/><path fill="#FCBA63" d="M12.5 75h6.278v6.278H12.5zM18.778 75h6.278v6.278h-6.278z"/><path fill="#BE1E2D" d="M24.944 75h6.278v6.278h-6.278zM31.222 75H37.5v6.278h-6.278zM37.5 75h6.278v6.278H37.5zM43.778 75h6.278v6.278h-6.278z"/><path fill="#BE1E2D" d="M49.944 75h6.278v6.278h-6.278zM56.222 75H62.5v6.278h-6.278zM62.5 75h6.278v6.278H62.5zM68.778 75h6.278v6.278h-6.278z"/><path fill="#FCBA63" d="M74.944 75h6.278v6.278h-6.278z"/><path fill="#FCBA63" d="M81.222 75H87.5v6.278h-6.278zM87.5 75h6.278v6.278H87.5zM12.5 68.722h6.278V75H12.5zM18.778 68.722h6.278V75h-6.278z"/><path fill="#FCBA63" d="M24.944 68.722h6.278V75h-6.278z"/><path fill="#BE1E2D" d="M31.222 68.722H37.5V75h-6.278zM37.5 68.722h6.278V75H37.5zM43.778 68.722h6.278V75h-6.278z"/><path fill="#BE1E2D" d="M49.944 68.722h6.278V75h-6.278zM56.222 68.722H62.5V75h-6.278zM62.5 68.722h6.278V75H62.5z"/><path fill="#FCBA63" d="M68.778 68.722h6.278V75h-6.278z"/><path fill="#FCBA63" d="M74.944 68.722h6.278V75h-6.278z"/><path fill="#FCBA63" d="M81.222 68.722H87.5V75h-6.278zM87.5 68.722h6.278V75H87.5zM12.5 62.444h6.278v6.278H12.5zM18.778 62.444h6.278v6.278h-6.278z"/><path fill="#4D3605" d="M24.944 62.444h6.278v6.278h-6.278z"/><path fill="#BE1E2D" d="M31.222 62.444H37.5v6.278h-6.278z"/><path fill="#FCBA63" d="M37.5 62.444h6.278v6.278H37.5z"/><path fill="#BE1E2D" d="M43.778 62.444h6.278v6.278h-6.278z"/><path fill="#BE1E2D" d="M49.944 62.444h6.278v6.278h-6.278z"/><path fill="#FCBA63" d="M56.222 62.444H62.5v6.278h-6.278z"/><path fill="#BE1E2D" d="M62.5 62.444h6.278v6.278H62.5z"/><path fill="#4D3605" d="M68.778 62.444h6.278v6.278h-6.278z"/><path fill="#FCBA63" d="M74.944 62.444h6.278v6.278h-6.278z"/><path fill="#FCBA63" d="M81.222 62.444H87.5v6.278h-6.278zM87.5 62.444h6.278v6.278H87.5z"/><path fill="#4D3605" d="M12.5 56.278h6.278v6.278H12.5zM18.778 56.278h6.278v6.278h-6.278z"/><path fill="#4D3605" d="M24.944 56.278h6.278v6.278h-6.278zM31.222 56.278H37.5v6.278h-6.278z"/><path fill="#BE1E2D" d="M37.5 56.278h6.278v6.278H37.5zM43.778 56.278h6.278v6.278h-6.278z"/><path fill="#BE1E2D" d="M49.944 56.278h6.278v6.278h-6.278zM56.222 56.278H62.5v6.278h-6.278z"/><path fill="#4D3605" d="M62.5 56.278h6.278v6.278H62.5zM68.778 56.278h6.278v6.278h-6.278z"/><path fill="#4D3605" d="M74.944 56.278h6.278v6.278h-6.278z"/><path fill="#4D3605" d="M81.222 56.278H87.5v6.278h-6.278zM87.5 56.278h6.278v6.278H87.5zM12.5 50h6.278v6.278H12.5zM18.778 50h6.278v6.278h-6.278z"/><path fill="#4D3605" d="M24.944 50h6.278v6.278h-6.278zM31.222 50H37.5v6.278h-6.278z"/><path fill="#BE1E2D" d="M37.5 50h6.278v6.278H37.5z"/><path fill="#4D3605" d="M43.778 50h6.278v6.278h-6.278z"/><path fill="#4D3605" d="M49.944 50h6.278v6.278h-6.278z"/><path fill="#BE1E2D" d="M56.222 50H62.5v6.278h-6.278z"/><path fill="#4D3605" d="M62.5 50h6.278v6.278H62.5zM68.778 50h6.278v6.278h-6.278z"/><path fill="#4D3605" d="M74.944 50h6.278v6.278h-6.278z"/><path fill="#4D3605" d="M81.222 50H87.5v6.278h-6.278zM18.778 43.722h6.278V50h-6.278z"/><path fill="#4D3605" d="M24.944 43.722h6.278V50h-6.278zM31.222 43.722H37.5V50h-6.278z"/><path fill="#BE1E2D" d="M37.5 43.722h6.278V50H37.5z"/><path fill="#4D3605" d="M43.778 43.722h6.278V50h-6.278z"/><path fill="#4D3605" d="M49.944 43.722h6.278V50h-6.278zM56.222 43.722H62.5V50h-6.278z"/><path fill="#FCBA63" d="M31.222 37.444H37.5v6.278h-6.278zM37.5 37.444h6.278v6.278H37.5zM43.778 37.444h6.278v6.278h-6.278z"/><path fill="#FCBA63" d="M49.944 37.444h6.278v6.278h-6.278zM56.222 37.444H62.5v6.278h-6.278zM62.5 37.444h6.278v6.278H62.5zM68.778 37.444h6.278v6.278h-6.278z"/><path fill="#4D3605" d="M18.778 31.278h6.278v6.278h-6.278z"/><path fill="#4D3605" d="M24.944 31.278h6.278v6.278h-6.278z"/><path fill="#FCBA63" d="M31.222 31.278H37.5v6.278h-6.278zM37.5 31.278h6.278v6.278H37.5zM43.778 31.278h6.278v6.278h-6.278z"/><path fill="#FCBA63" d="M49.944 31.278h6.278v6.278h-6.278z"/><path fill="#4D3605" d="M56.222 31.278H62.5v6.278h-6.278zM62.5 31.278h6.278v6.278H62.5zM68.778 31.278h6.278v6.278h-6.278z"/><path fill="#4D3605" d="M74.944 31.278h6.278v6.278h-6.278zM18.778 25h6.278v6.278h-6.278z"/><path fill="#FCBA63" d="M24.944 25h6.278v6.278h-6.278z"/><path fill="#4D3605" d="M31.222 25H37.5v6.278h-6.278zM37.5 25h6.278v6.278H37.5z"/><path fill="#FCBA63" d="M43.778 25h6.278v6.278h-6.278z"/><path fill="#FCBA63" d="M49.944 25h6.278v6.278h-6.278zM56.222 25H62.5v6.278h-6.278z"/><path fill="#4D3605" d="M62.5 25h6.278v6.278H62.5z"/><path fill="#FCBA63" d="M68.778 25h6.278v6.278h-6.278z"/><path fill="#FCBA63" d="M74.944 25h6.278v6.278h-6.278z"/><path fill="#FCBA63" d="M81.222 25H87.5v6.278h-6.278z"/><path fill="#4D3605" d="M18.778 18.722h6.278V25h-6.278z"/><path fill="#FCBA63" d="M24.944 18.722h6.278V25h-6.278z"/><path fill="#4D3605" d="M31.222 18.722H37.5V25h-6.278z"/><path fill="#FCBA63" d="M37.5 18.722h6.278V25H37.5zM43.778 18.722h6.278V25h-6.278z"/><path fill="#FCBA63" d="M49.944 18.722h6.278V25h-6.278z"/><path fill="#4D3605" d="M56.222 18.722H62.5V25h-6.278z"/><path fill="#FCBA63" d="M62.5 18.722h6.278V25H62.5zM68.778 18.722h6.278V25h-6.278z"/><path fill="#FCBA63" d="M74.944 18.722h6.278V25h-6.278z"/><path fill="#4D3605" d="M24.944 12.444h6.278v6.278h-6.278zM31.222 12.444H37.5v6.278h-6.278zM37.5 12.444h6.278v6.278H37.5z"/><path fill="#FCBA63" d="M43.778 12.444h6.278v6.278h-6.278z"/><path fill="#FCBA63" d="M49.944 12.444h6.278v6.278h-6.278z"/><path fill="#4D3605" d="M56.222 12.444H62.5v6.278h-6.278z"/><path fill="#FCBA63" d="M62.5 12.444h6.278v6.278H62.5z"/><path fill="#BE1E2D" d="M24.944 6.278h6.278v6.278h-6.278zM31.222 6.278H37.5v6.278h-6.278zM37.5 6.278h6.278v6.278H37.5zM43.778 6.278h6.278v6.278h-6.278z"/><path fill="#BE1E2D" d="M49.944 6.278h6.278v6.278h-6.278zM56.222 6.278H62.5v6.278h-6.278zM62.5 6.278h6.278v6.278H62.5zM68.778 6.278h6.278v6.278h-6.278z"/><path fill="#BE1E2D" d="M74.944 6.278h6.278v6.278h-6.278zM31.222 0H37.5v6.278h-6.278zM37.5 0h6.278v6.278H37.5zM43.778 0h6.278v6.278h-6.278z"/><path fill="#BE1E2D" d="M49.944 0h6.278v6.278h-6.278zM56.222 0H62.5v6.278h-6.278z"/></g></svg>
